X:1
T:Triglav
T:Jakob Aljaž (1845-1927)
T:Triglav
T:Copyright © 
T:Copyright © 
C:Jakob Aljaž
C:(1845-1927)
Z:Copyright ©
%%score [ ( 1 2 ) ( 3 4 ) ]
L:1/8
Q:1/4=120
M:4/4
K:Eb
V:1 treble-8 transpose=-12 nm="P1" snm="T. L."
V:2 treble-8 transpose=-12 
V:3 bass nm="P2" snm="Bar. B."
V:4 bass 
V:1
!f!"^Con Moto" B | B2 ef g3 e | d2 ef e2 z!p! e | c2 de B2 ge | d2 cd B2!mf! z B | cB=AB e2 Be | %6
!f! f2 fg a2 z B | g2 ff e2 d"^poco ritardando"d |"^rit."!>(! cedc!>)! !fermata!=B2"^A tempo" z G | %9
 AG^FG d2 c_B | edef g2 z!f! f | a2 gf _e3 e | d2 ef e2 z |: z |!pp! e z e z d z d z | %15
 d z d z e z e!f!B | B2 cB e3 e | f2 ^ff g3 e |"^rit." a4 g2 f2 | e4 z2 :| %20
V:2
 B | B2 Bd e3 B | B2 BB B2 x B | A2 Bc G2 Bc | B2 =AA B2 x B | cB=AB B2 BB | d2 de f2 x B | %7
w: Oj|Tri- glav moj dom, ka-|ko si kra- san ka-|ko me iz- va- bljaš iz|niz- kih ra- van. V\_po-|le- * tni vro- či- ni na|str- me vr- he, da|
w: Oj,|Tri- glav moj dom, če-|tu- di je svet za-|ča- ral s\_ču- de- si mi|več- krat po- gled, tu-|ji- * na sme- hlja- je ka-|za- la mi kras, le|
w: Oj|Tri- glav, v\_spo- mi- nu|mi je tvoj čar, Za-|tó pa te lju- bim in|bom te vse- kdar; In|Zad- * nja ko u- ra od-|bi- la mi bo, Pod|
w: |||||||
 e2 dd c2 =BB | c2 AA G2 x G | AG^FG =B2 c_B | B2 Bd e2 x c | c2 cc B3 B | B2 BB B2 x |: x | %14
w: tam si spo- či- jem v\_sa-|mo- ti sr- ce, Kjer|po- * tok iz- vi- ra v\_ska-|lo- vju hla- dan: Oj,|Tri- glav moj dom, ka-|ko si kra- san!||
w: na- te sem mi- slil lju-|be- če vsak čas. O|te- * bi sem san- jal sred|sve- tlih dvo- ran: *||||
w: tvo- jim ob- zor- jem naj|spa- va te- lo, Kjer|ptič- * ki ra- do- stno na-|zna- nja- jo dan: *||||
w: |||||||
 G x G x B x B x | B x B x B x BB | B2 cB c3 c | e2 ee e3 e | d4 d2 d2 | B4 x2 :| %20
w: ||Tri- glav moj dom, ka-|kó si kra- san, ka-|ko si kra-|sán!|
w: ||||||
w: ||||||
w: Tri- glav, moj dom,|Tri- glav, moj- dom, oj|||||
V:3
!f! B, | B,2 B,B, B,3 G, | F,2 G,A, G,2 z!p! E, | E,2 E,E, G,2 G,G, | F,2 E,F, D,2!mf! z B,, | %5
w: |||||
w: |||||
 C,B,,=A,,B,, G,2 G,G, |!f! B,2 B,E D2 z B, | B,2 A,A, G,2 F,F, |!>(! E,2 F,F,!>)! D,2 z G, | %9
w: ||||
w: ||||
 A,G,^F,G, G,2 G,_B, | B,2 B,B, B,2 z!f! A, | C2 B,A, G,3 G, | F,2 G,A, G,2!mf! z |: B, | %14
w: |||||
w: ||||Oj|
!p! B,2 CB, A,2 z A, | A,2 B,A, G,2 z!f! G, | G,2 G,G, G,3 G, | C2 CC B,3 G, | (F,2 C2) B,2 A,2 | %19
w: |||||
w: Tri- glav, moj dom, oj|Tri- glav, moj dom. Oj||||
 G,4 z2 :| %20
w: |
w: |
V:4
 B, | B,2 G,B, E,3 E, | B,,2 B,,B,, E,2 x G,, | A,,2 A,,A,, E,2 E,E, | F,2 F,,F,, B,,2 x B,, | %5
w: |||||
 C,B,,=A,,B,, G,,B,,E,G, | B,2 B,B, B,2 x B, | E,2 B,,B,, C,2 G,,G,, | A,,2 F,,F,, G,,2 x G, | %9
w: ||||
 A,G,^F,G, =F,2 E,B, | G,A,G,F, E,2 x A, | F,2 =E,F, B,,3 B,, | B,,2 B,,B,, E,2 x |: z | %14
w: |||||
 E, z E, z F, z F, z | F, z F, z E, z E,E, | E,2 E,E, C,3 C, | A,,2 A,,=A,, B,,3 B,, | %18
w: Tri- glav, moj dom,|Tri- glav, moj- dom, oj|||
 B,,4 B,,2 B,,2 | E,4 x2 :| %20
w: ||

